X:035
U: ~ = !turn!
%%topmargin 3cm
T:Colonel Robertson
B:Traditional Irish Fiddle Tunes. Randy Miller and Jack Perron.
Z:Transcribed by Ralph Palmer
R:Jig
L:1/8
M:6/8
K:D
a | fed A2 d | BGB A2 a | fed A2 d | c2 e e2 a |
fed A2 d | BGB A2d | BGd cAe | [1 d3 z2 :| [2 d3 z ||
|: fg | afd f2 a | fef def | gfg ecA |
[1 gfg efg | afd f2 a | fef d2 A | BGd cAe | d3 z :|
[2 gfg e2 A | dfA eAe | faf d2 A | BGd cAe | d3 z2 |]
